#define xgam_width 48
#define xgam_height 48
static char xgam_bits[] = {
   0xff, 0xff, 0xff, 0xff, 0xff, 0xff, 0xff, 0xff, 0xff, 0xff, 0xff, 0xff,
   0xff, 0xff, 0xff, 0xff, 0xff, 0xff, 0xff, 0xff, 0xff, 0xff, 0xff, 0xff,
   0xff, 0xff, 0xff, 0xff, 0x1f, 0xfe, 0xff, 0xff, 0xff, 0xff, 0x07, 0xfc,
   0xff, 0xff, 0xff, 0xff, 0x01, 0xf0, 0xff, 0xff, 0xff, 0xff, 0x00, 0xe0,
   0xff, 0xff, 0xff, 0x3f, 0x00, 0xe0, 0x7f, 0xf8, 0xff, 0x1f, 0xf0, 0xf1,
   0x3f, 0xc0, 0xff, 0x0f, 0xfe, 0xff, 0xff, 0x03, 0xff, 0x87, 0xff, 0xff,
   0xff, 0x1f, 0xfc, 0xe3, 0xff, 0xff, 0xff, 0x3f, 0xf8, 0xf1, 0xff, 0xff,
   0xff, 0x7f, 0xf8, 0xfc, 0xff, 0xff, 0xff, 0xff, 0x71, 0xfe, 0xff, 0xff,
   0xff, 0xff, 0x21, 0xff, 0xff, 0xff, 0xff, 0xff, 0x83, 0xff, 0xff, 0xff,
   0xff, 0xff, 0xc7, 0xff, 0xff, 0xff, 0xff, 0xff, 0x8f, 0xff, 0xff, 0xff,
   0xff, 0xff, 0x87, 0xff, 0xff, 0xff, 0xff, 0xff, 0x17, 0xff, 0xff, 0xff,
   0xff, 0xff, 0x13, 0xff, 0xff, 0xff, 0xff, 0xff, 0x1b, 0xfe, 0xff, 0xff,
   0xff, 0xff, 0x39, 0xfe, 0xff, 0xff, 0xff, 0xff, 0x39, 0xfc, 0xff, 0xff,
   0xff, 0xff, 0x3c, 0xfc, 0xff, 0xff, 0xff, 0xff, 0x3c, 0xf8, 0xff, 0xff,
   0xff, 0x7f, 0x3c, 0xf8, 0xff, 0xff, 0xff, 0x7f, 0x7e, 0xf8, 0xff, 0xff,
   0xff, 0x3f, 0x7e, 0xf8, 0xff, 0xff, 0xff, 0x3f, 0x7e, 0xf8, 0xff, 0xff,
   0xff, 0x3f, 0x7e, 0xf8, 0xff, 0xff, 0xff, 0x3f, 0x7f, 0xf8, 0xff, 0xff,
   0xff, 0x3f, 0x7f, 0xf8, 0xff, 0xff, 0xff, 0x3f, 0x7f, 0xfc, 0xff, 0xff,
   0xff, 0x3f, 0x7f, 0xfc, 0xff, 0xff, 0xff, 0x3f, 0x3f, 0xfc, 0xff, 0xff,
   0xff, 0x3f, 0x3e, 0xfc, 0xff, 0xff, 0xff, 0x7f, 0x1e, 0xfe, 0xff, 0xff,
   0xff, 0xff, 0x00, 0xfe, 0xff, 0xff, 0xff, 0xff, 0x00, 0xff, 0xff, 0xff,
   0xff, 0xff, 0xe3, 0xff, 0xff, 0xff, 0xff, 0xff, 0xff, 0xff, 0xff, 0xff,
   0xff, 0xff, 0xff, 0xff, 0xff, 0xff, 0xff, 0xff, 0xff, 0xff, 0xff, 0xff,
   0xff, 0xff, 0xff, 0xff, 0xff, 0xff, 0xff, 0xff, 0xff, 0xff, 0xff, 0xff};
